X: 19
T:The Sailor's Return
T:Eileen Curran (Key of F)
M:4/4
L:1/8
S:Gerald Trimble's "First Flight"
R:Reel
N:Played in many keys- Also in D, F
D:Gerald Trimble, "First Flight"
D:Kevin Burke (as "Eileen Curran in F")
K:G
AB|:cBAG EAAc|BGdG eGdB|cBAG EAAB|cBcd eaab|
c'ab^g a=gef|gedc BGAB|cBAG EAAB|ce (3dcB cA A2:|
|:a2 a^g ac'ba|=g2 gf gabg|eaa^g a2 ab|c'ab^g a2 ab|
c'ab^g a=gef|gedc BGAB|cBAG EAAB|ce (3dcB cA A2:|

